X:1
T: Lang Syne
C:
R:Strathspey
Q: 128
K:G
M:4/4
L:1/16
|:D2|GG3 G3B A3G A3B|GG3 B3d e4 efg2|dB3 B3G A3G A3B|GE3 E3D G6 D2|
GG3 G3B A3G A3B|GG3 B3d e4 efg2|dB3 B3G A3G A3B|GE3 E3D G6 e2|
dB3 B3G A3G A3B|dB3 B3d e4 efg2|dB3 B3G A3G A3B|GE3 E3D G6 e2|
dB3 B3G A3G A3B|dB3 B3d e4 efg2|dB3 B3G A3G A3B|GE3 E3D G6:|
